;FLAVOR:Marlin
;TIME:3965
;Filament used: 2.37305m
;Layer height: 0.2
;MINX:76.5
;MINY:94
;MINZ:0.2
;MAXX:158.5
;MAXY:141
;MAXZ:21
;TARGET_MACHINE.NAME:Creality Ender-3
;Generated with Cura_SteamEngine 5.6.0
M140 S50
M105
M190 S50
M104 S200
M105
M109 S200
M82 ;absolute extrusion mode
; Ender 3 Custom Start G-code
G92 E0 ; Reset Extruder
G28 ; Home all axes
G1 Z2.0 F3000 ; Move Z Axis up little to prevent scratching of Heat Bed
G1 X0.1 Y20 Z0.3 F5000.0 ; Move to start position
G1 X0.1 Y200.0 Z0.3 F1500.0 E15 ; Draw the first line
G1 X0.4 Y200.0 Z0.3 F5000.0 ; Move to side a little
G1 X0.4 Y20 Z0.3 F1500.0 E30 ; Draw the second line
G92 E0 ; Reset Extruder
G1 Z2.0 F3000 ; Move Z Axis up little to prevent scratching of Heat Bed
G1 X5 Y20 Z0.3 F5000.0 ; Move over to prevent blob squish
G92 E0
G92 E0
G1 F2700 E-5
;LAYER_COUNT:105
;LAYER:0
M107
G0 F6000 X80.692 Y96.376 Z0.2
;TYPE:SKIRT
G1 F2700 E0
G1 F1200 X81.424 Y95.846 E0.03006
G1 X82.321 Y95.311 E0.0648
G1 X83.199 Y94.89 E0.09718
G1 X84.112 Y94.548 E0.12961
G1 X85.049 Y94.289 E0.16194
G1 X86.016 Y94.111 E0.19465
G1 X87.155 Y94.015 E0.23266
G1 X87.812 Y94 E0.25452
G1 X146.804 Y94 E2.2166
G1 X147.684 Y94.013 E2.24587
G1 X148.656 Y94.072 E2.27826
G1 X149.619 Y94.218 E2.31066
G1 X150.566 Y94.449 E2.34308
G1 X151.454 Y94.749 E2.37425
G1 X152.346 Y95.139 E2.40663
G1 X153.229 Y95.626 E2.44017
G1 X153.98 Y96.128 E2.47022
G1 X154.795 Y96.786 E2.50506
G1 X155.493 Y97.464 E2.53742
G1 X156.129 Y98.201 E2.5698
G1 X156.699 Y98.991 E2.6022
G1 X157.161 Y99.767 E2.63224
G1 X157.615 Y100.709 E2.66702
G1 X157.944 Y101.587 E2.6982
G1 X158.213 Y102.559 E2.73175
G1 X158.39 Y103.525 E2.76441
G1 X158.485 Y104.655 E2.80213
G1 X158.5 Y105.33 E2.82458
G1 X158.499 Y114.43 E3.12725
G1 X158.473 Y116.27 E3.18846
G1 X158.473 Y118.882 E3.27533
G1 X158.497 Y119.981 E3.31189
G1 X158.5 Y129.273 E3.62095
G1 X158.488 Y130.163 E3.65055
G1 X158.431 Y131.136 E3.68297
G1 X158.286 Y132.099 E3.71536
G1 X158.057 Y133.045 E3.74773
G1 X157.746 Y133.969 E3.78016
G1 X157.354 Y134.86 E3.81253
G1 X156.886 Y135.712 E3.84487
G1 X156.364 Y136.493 E3.87611
G1 X155.731 Y137.278 E3.90965
G1 X155.106 Y137.929 E3.93967
G1 X154.317 Y138.617 E3.97448
G1 X153.557 Y139.167 E4.00569
G1 X152.69 Y139.684 E4.03926
G1 X151.812 Y140.106 E4.07166
G1 X150.901 Y140.448 E4.10403
G1 X149.962 Y140.709 E4.13644
G1 X148.996 Y140.887 E4.16911
G1 X147.845 Y140.985 E4.20753
G1 X147.17 Y141 E4.22999
G1 X88.064 Y140.999 E6.19586
G1 X87.331 Y140.988 E6.22024
G1 X86.359 Y140.931 E6.25263
G1 X85.396 Y140.785 E6.28502
G1 X84.45 Y140.556 E6.3174
G1 X83.526 Y140.244 E6.34983
G1 X82.636 Y139.852 E6.38218
G1 X81.813 Y139.401 E6.41339
G1 X80.974 Y138.84 E6.44696
G1 X80.27 Y138.274 E6.47701
G1 X79.517 Y137.549 E6.51177
G1 X78.88 Y136.813 E6.54415
G1 X78.35 Y136.082 E6.57418
G1 X77.814 Y135.185 E6.60893
G1 X77.392 Y134.307 E6.64133
G1 X77.05 Y133.395 E6.67373
G1 X76.79 Y132.457 E6.7061
G1 X76.612 Y131.488 E6.73887
G1 X76.514 Y130.309 E6.77822
G1 X76.5 Y129.658 E6.79988
G1 X76.501 Y120.559 E7.10251
G1 X76.527 Y118.728 E7.16342
G1 X76.527 Y116.118 E7.25023
G1 X76.503 Y115.019 E7.28679
G1 X76.5 Y105.665 E7.5979
G1 X76.512 Y104.825 E7.62585
G1 X76.57 Y103.852 E7.65827
G1 X76.716 Y102.889 E7.69066
G1 X76.946 Y101.943 E7.72304
G1 X77.259 Y101.02 E7.75546
G1 X77.651 Y100.13 E7.7878
G1 X78.121 Y99.277 E7.8202
G1 X78.664 Y98.469 E7.85258
G1 X79.231 Y97.765 E7.88264
G1 X79.956 Y97.013 E7.91738
G1 X80.692 Y96.376 E7.94976
G0 F6000 X80.927 Y96.7
G1 F1200 X81.659 Y96.17 E7.97982
G1 X82.495 Y95.671 E8.0122
G1 X83.34 Y95.264 E8.04339
G1 X84.219 Y94.933 E8.07463
G1 X85.122 Y94.682 E8.1058
G1 X86.05 Y94.51 E8.1372
G1 X87.189 Y94.414 E8.17521
G1 X87.821 Y94.4 E8.19624
G1 X146.798 Y94.4 E10.15782
G1 X147.66 Y94.412 E10.1865
G1 X148.597 Y94.468 E10.21772
G1 X149.525 Y94.607 E10.24893
G1 X150.438 Y94.828 E10.28017
G1 X151.294 Y95.116 E10.31021
G1 X152.186 Y95.506 E10.34259
G1 X153.007 Y95.959 E10.37377
G1 X153.758 Y96.461 E10.40382
G1 X154.517 Y97.073 E10.43625
G1 X155.191 Y97.726 E10.46746
G1 X155.805 Y98.435 E10.49866
G1 X156.355 Y99.196 E10.52989
G1 X156.817 Y99.972 E10.55992
G1 X157.24 Y100.849 E10.59231
G1 X157.569 Y101.727 E10.62349
G1 X157.82 Y102.632 E10.65473
G1 X157.991 Y103.559 E10.68608
G1 X158.086 Y104.689 E10.7238
G1 X158.1 Y105.33 E10.74512
G1 X158.099 Y114.424 E11.04759
G1 X158.073 Y116.264 E11.1088
G1 X158.073 Y118.882 E11.19587
G1 X158.097 Y119.981 E11.23243
G1 X158.1 Y129.268 E11.54132
G1 X158.089 Y130.14 E11.57033
G1 X158.035 Y131.077 E11.60154
G1 X157.897 Y132.006 E11.63278
G1 X157.678 Y132.918 E11.66397
G1 X157.38 Y133.808 E11.69519
G1 X157.003 Y134.668 E11.72642
G1 X156.553 Y135.49 E11.75759
G1 X156.031 Y136.271 E11.78884
G1 X155.442 Y137.001 E11.82003
G1 X154.817 Y137.652 E11.85005
G1 X154.082 Y138.293 E11.88249
G1 X153.322 Y138.843 E11.91369
G1 X152.516 Y139.324 E11.94491
G1 X151.671 Y139.732 E11.97612
G1 X150.793 Y140.063 E12.00733
G1 X149.889 Y140.316 E12.03855
G1 X148.962 Y140.488 E12.06991
G1 X147.811 Y140.586 E12.10833
G1 X147.17 Y140.6 E12.12965
G1 X88.07 Y140.599 E14.09533
G1 X87.354 Y140.589 E14.11914
G1 X86.418 Y140.535 E14.15033
G1 X85.489 Y140.396 E14.18157
G1 X84.577 Y140.177 E14.21276
G1 X83.687 Y139.878 E14.24399
G1 X82.828 Y139.501 E14.27519
G1 X82.005 Y139.05 E14.30641
G1 X81.225 Y138.528 E14.33762
G1 X80.521 Y137.962 E14.36767
G1 X79.819 Y137.287 E14.40006
G1 X79.204 Y136.578 E14.43127
G1 X78.674 Y135.847 E14.46131
G1 X78.174 Y135.011 E14.4937
G1 X77.766 Y134.166 E14.52491
G1 X77.435 Y133.288 E14.55612
G1 X77.183 Y132.384 E14.58734
G1 X77.011 Y131.455 E14.61876
G1 X76.913 Y130.276 E14.65811
G1 X76.9 Y129.658 E14.67867
G1 X76.901 Y120.565 E14.9811
G1 X76.927 Y118.734 E15.04201
G1 X76.927 Y116.118 E15.12902
G1 X76.903 Y115.019 E15.16558
G1 X76.9 Y105.67 E15.47653
G1 X76.911 Y104.848 E15.50387
G1 X76.966 Y103.911 E15.53509
G1 X77.105 Y102.983 E15.5663
G1 X77.325 Y102.071 E15.5975
G1 X77.625 Y101.181 E15.62874
G1 X78.002 Y100.322 E15.65994
G1 X78.453 Y99.5 E15.69112
G1 X78.976 Y98.72 E15.72236
G1 X79.543 Y98.016 E15.75242
G1 X80.218 Y97.315 E15.78479
G1 X80.927 Y96.7 E15.81601
G0 F6000 X81.162 Y97.024
G1 F1200 X81.894 Y96.494 E15.84607
G1 X82.669 Y96.031 E15.87609
G1 X83.482 Y95.638 E15.90613
G1 X84.327 Y95.318 E15.93618
G1 X85.196 Y95.075 E15.96619
G1 X86.084 Y94.909 E15.99624
G1 X87.223 Y94.813 E16.03426
G1 X87.83 Y94.8 E16.05445
G1 X146.793 Y94.8 E18.01557
G1 X147.637 Y94.811 E18.04364
G1 X148.539 Y94.864 E18.07369
G1 X149.432 Y94.996 E18.10372
G1 X150.31 Y95.207 E18.13375
G1 X151.166 Y95.495 E18.16379
G1 X151.993 Y95.857 E18.19382
G1 X152.785 Y96.292 E18.22387
G1 X153.536 Y96.794 E18.25391
G1 X154.239 Y97.361 E18.28395
G1 X154.889 Y97.988 E18.31399
G1 X155.481 Y98.67 E18.34403
G1 X156.011 Y99.401 E18.37406
G1 X156.473 Y100.177 E18.4041
G1 X156.866 Y100.99 E18.43413
G1 X157.184 Y101.835 E18.46416
G1 X157.427 Y102.705 E18.4942
G1 X157.592 Y103.593 E18.52425
G1 X157.687 Y104.723 E18.56196
G1 X157.7 Y105.33 E18.58216
G1 X157.699 Y114.418 E18.88442
G1 X157.673 Y116.258 E18.94563
G1 X157.673 Y118.882 E19.0329
G1 X157.697 Y119.981 E19.06946
G1 X157.7 Y129.263 E19.37818
G1 X157.69 Y130.117 E19.40659
G1 X157.639 Y131.019 E19.43664
G1 X157.508 Y131.913 E19.46669
G1 X157.299 Y132.791 E19.49671
G1 X157.013 Y133.648 E19.52676
G1 X156.652 Y134.476 E19.5568
G1 X156.22 Y135.268 E19.58681
G1 X155.719 Y136.02 E19.61686
G1 X155.153 Y136.724 E19.64691
G1 X154.528 Y137.375 E19.67692
G1 X153.847 Y137.969 E19.70698
G1 X153.116 Y138.5 E19.73703
G1 X152.342 Y138.964 E19.76704
G1 X151.529 Y139.358 E19.79709
G1 X150.685 Y139.678 E19.82711
G1 X149.815 Y139.923 E19.85718
G1 X148.928 Y140.089 E19.88719
G1 X147.777 Y140.187 E19.92561
G1 X147.17 Y140.2 E19.9458
G1 X88.075 Y140.199 E21.91131
G1 X87.377 Y140.19 E21.93453
G1 X86.476 Y140.139 E21.96454
G1 X85.582 Y140.007 E21.9946
G1 X84.704 Y139.798 E22.02462
G1 X83.847 Y139.511 E22.05468
G1 X83.02 Y139.15 E22.08469
G1 X82.227 Y138.717 E22.11474
G1 X81.476 Y138.216 E22.14477
G1 X80.772 Y137.65 E22.17481
G1 X80.121 Y137.024 E22.20485
G1 X79.528 Y136.343 E22.23489
G1 X78.998 Y135.612 E22.26492
G1 X78.534 Y134.837 E22.29496
G1 X78.14 Y134.024 E22.32501
G1 X77.82 Y133.18 E22.35503
G1 X77.576 Y132.31 E22.38508
G1 X77.41 Y131.422 E22.41513
G1 X77.313 Y130.267 E22.45368
G1 X77.3 Y129.658 E22.47394
G1 X77.301 Y120.571 E22.77618
G1 X77.327 Y118.74 E22.83708
G1 X77.327 Y116.118 E22.92429
G1 X77.303 Y115.019 E22.96085
G1 X77.3 Y105.675 E23.27163
G1 X77.31 Y104.871 E23.29838
G1 X77.362 Y103.969 E23.32843
G1 X77.494 Y103.076 E23.35845
G1 X77.704 Y102.198 E23.38848
G1 X77.991 Y101.341 E23.41854
G1 X78.353 Y100.514 E23.44856
G1 X78.786 Y99.722 E23.47859
G1 X79.288 Y98.971 E23.50863
G1 X79.855 Y98.267 E23.5387
G1 X80.481 Y97.617 E23.56871
G1 X81.162 Y97.024 E23.59874
G1 F2700 E18.59874
;MESH:clamp_robo v1.stl
G0 F6000 X87.92 Y104.335
G0 X146.9 Y114.4
;TYPE:WALL-INNER
G1 F2700 E23.59874
G1 F1200 X146.9 Y105.6 E23.89143
G1 X88.1 Y105.6 E25.84713
G1 X88.1 Y114.4 E26.13982
G1 X146.9 Y114.4 E28.09551
G0 F6000 X147.3 Y114.8
;TYPE:WALL-OUTER
G1 F1200 X147.3 Y105.2 E28.41481
G1 X87.7 Y105.2 E30.39712
G1 X87.7 Y114.8 E30.71641
G1 X147.3 Y114.8 E32.69872
G0 F6000 X147.03 Y114.53
G0 X146.8 Y114.04
G0 X146.54 Y114.04
;TYPE:SKIN
G1 F1200 X88.46 Y114.04 E34.63047
G1 X88.46 Y105.96 E34.89921
G1 X146.54 Y105.96 E36.83096
G1 X146.54 Y114.04 E37.0997
G0 F6000 X146.8 Y114.04
G0 X146.8 Y106.741
G0 X146.339 Y106.741
G1 F1200 X145.758 Y106.16 E37.12703
G0 F6000 X145.192 Y106.16
G1 F1200 X146.339 Y107.306 E37.18095
G0 F6000 X146.339 Y107.872
G1 F1200 X144.626 Y106.16 E37.26151
G0 F6000 X144.06 Y106.16
G1 F1200 X146.339 Y108.438 E37.36868
G0 F6000 X146.339 Y109.004
G1 F1200 X143.495 Y106.16 E37.50245
G0 F6000 X142.929 Y106.16
G1 F1200 X146.339 Y109.569 E37.66282
G0 F6000 X146.339 Y110.135
G1 F1200 X142.363 Y106.16 E37.84982
G0 F6000 X141.798 Y106.16
G1 F1200 X146.339 Y110.701 E38.06341
G0 F6000 X146.339 Y111.266
G1 F1200 X141.232 Y106.16 E38.30361
G0 F6000 X140.666 Y106.16
G1 F1200 X146.339 Y111.832 E38.57043
G0 F6000 X146.339 Y112.398
G1 F1200 X140.101 Y106.16 E38.86384
G0 F6000 X139.535 Y106.16
G1 F1200 X146.339 Y112.963 E39.18386
G0 F6000 X146.339 Y113.529
G1 F1200 X138.969 Y106.16 E39.5305
G0 F6000 X138.404 Y106.16
G1 F1200 X146.084 Y113.839 E39.89172
G0 F6000 X145.518 Y113.839
G1 F1200 X137.838 Y106.16 E40.25294
G0 F6000 X137.272 Y106.16
G1 F1200 X144.952 Y113.839 E40.61416
G0 F6000 X144.386 Y113.839
G1 F1200 X136.707 Y106.16 E40.97535
G0 F6000 X136.141 Y106.16
G1 F1200 X143.821 Y113.839 E41.33657
G0 F6000 X143.255 Y113.839
G1 F1200 X135.575 Y106.16 E41.69779
G0 F6000 X135.01 Y106.16
G1 F1200 X142.689 Y113.839 E42.05899
G0 F6000 X142.124 Y113.839
G1 F1200 X134.444 Y106.16 E42.42021
G0 F6000 X133.878 Y106.16
G1 F1200 X141.558 Y113.839 E42.78143
G0 F6000 X140.992 Y113.839
G1 F1200 X133.312 Y106.16 E43.14265
G0 F6000 X132.747 Y106.16
G1 F1200 X140.427 Y113.839 E43.50387
G0 F6000 X139.861 Y113.839
G1 F1200 X132.181 Y106.16 E43.86509
G0 F6000 X131.615 Y106.16
G1 F1200 X139.295 Y113.839 E44.22631
G0 F6000 X138.73 Y113.839
G1 F1200 X131.05 Y106.16 E44.58753
G0 F6000 X130.484 Y106.16
G1 F1200 X138.164 Y113.839 E44.94875
G0 F6000 X137.598 Y113.839
G1 F1200 X129.918 Y106.16 E45.30997
G0 F6000 X129.353 Y106.16
G1 F1200 X137.033 Y113.839 E45.67119
G0 F6000 X136.467 Y113.839
G1 F1200 X128.787 Y106.16 E46.03241
G0 F6000 X128.221 Y106.16
G1 F1200 X135.901 Y113.839 E46.39363
G0 F6000 X135.335 Y113.839
G1 F1200 X127.656 Y106.16 E46.75483
G0 F6000 X127.09 Y106.16
G1 F1200 X134.77 Y113.839 E47.11605
G0 F6000 X134.204 Y113.839
G1 F1200 X126.524 Y106.16 E47.47727
G0 F6000 X125.959 Y106.16
G1 F1200 X133.638 Y113.839 E47.83847
G0 F6000 X133.073 Y113.839
G1 F1200 X125.393 Y106.16 E48.19969
G0 F6000 X124.827 Y106.16
G1 F1200 X132.507 Y113.839 E48.56091
G0 F6000 X131.941 Y113.839
G1 F1200 X124.261 Y106.16 E48.92213
G0 F6000 X123.696 Y106.16
G1 F1200 X131.376 Y113.839 E49.28335
G0 F6000 X130.81 Y113.839
G1 F1200 X123.13 Y106.16 E49.64457
G0 F6000 X122.564 Y106.16
G1 F1200 X130.244 Y113.839 E50.00579
G0 F6000 X129.679 Y113.839
G1 F1200 X121.999 Y106.16 E50.36701
G0 F6000 X121.433 Y106.16
G1 F1200 X129.113 Y113.839 E50.72823
G0 F6000 X128.547 Y113.839
G1 F1200 X120.867 Y106.16 E51.08945
G0 F6000 X120.302 Y106.16
G1 F1200 X127.982 Y113.839 E51.45067
G0 F6000 X127.416 Y113.839
G1 F1200 X119.736 Y106.16 E51.81189
G0 F6000 X119.17 Y106.16
G1 F1200 X126.85 Y113.839 E52.17311
G0 F6000 X126.285 Y113.839
G1 F1200 X118.605 Y106.16 E52.53433
G0 F6000 X118.039 Y106.16
G1 F1200 X125.719 Y113.839 E52.89555
G0 F6000 X125.153 Y113.839
G1 F1200 X117.473 Y106.16 E53.25677
G0 F6000 X116.908 Y106.16
G1 F1200 X124.587 Y113.839 E53.61796
G0 F6000 X124.022 Y113.839
G1 F1200 X116.342 Y106.16 E53.97918
G0 F6000 X115.776 Y106.16
G1 F1200 X123.456 Y113.839 E54.3404
G0 F6000 X122.89 Y113.839
G1 F1200 X115.211 Y106.16 E54.7016
G0 F6000 X114.645 Y106.16
G1 F1200 X122.325 Y113.839 E55.06282
G0 F6000 X121.759 Y113.839
G1 F1200 X114.079 Y106.16 E55.42404
G0 F6000 X113.513 Y106.16
G1 F1200 X121.193 Y113.839 E55.78526
G0 F6000 X120.628 Y113.839
G1 F1200 X112.948 Y106.16 E56.14648
G0 F6000 X112.382 Y106.16
G1 F1200 X120.062 Y113.839 E56.5077
G0 F6000 X119.496 Y113.839
G1 F1200 X111.816 Y106.16 E56.86892
G0 F6000 X111.251 Y106.16
G1 F1200 X118.931 Y113.839 E57.23014
G0 F6000 X118.365 Y113.839
G1 F1200 X110.685 Y106.16 E57.59136
G0 F6000 X110.119 Y106.16
G1 F1200 X117.799 Y113.839 E57.95258
G0 F6000 X117.233 Y113.839
G1 F1200 X109.554 Y106.16 E58.31378
G0 F6000 X108.988 Y106.16
G1 F1200 X116.667 Y113.839 E58.67498
G0 F6000 X116.101 Y113.839
G1 F1200 X108.422 Y106.16 E59.03617
G0 F6000 X107.857 Y106.16
G1 F1200 X115.536 Y113.839 E59.39737
G0 F6000 X114.97 Y113.839
G1 F1200 X107.291 Y106.16 E59.75857
G0 F6000 X106.725 Y106.16
G1 F1200 X114.404 Y113.839 E60.11976
G0 F6000 X113.839 Y113.839
G1 F1200 X106.16 Y106.16 E60.48096
G0 F6000 X105.594 Y106.16
G1 F1200 X113.273 Y113.839 E60.84215
G0 F6000 X112.707 Y113.839
G1 F1200 X105.028 Y106.16 E61.20335
G0 F6000 X104.463 Y106.16
G1 F1200 X112.142 Y113.839 E61.56455
G0 F6000 X111.576 Y113.839
G1 F1200 X103.897 Y106.16 E61.92574
G0 F6000 X103.331 Y106.16
G1 F1200 X111.01 Y113.839 E62.28694
G0 F6000 X110.445 Y113.839
G1 F1200 X102.765 Y106.16 E62.64816
G0 F6000 X102.2 Y106.16
G1 F1200 X109.879 Y113.839 E63.00936
G0 F6000 X109.313 Y113.839
G1 F1200 X101.634 Y106.16 E63.37055
G0 F6000 X101.068 Y106.16
G1 F1200 X108.748 Y113.839 E63.73177
G0 F6000 X108.182 Y113.839
G1 F1200 X100.503 Y106.16 E64.09297
G0 F6000 X99.937 Y106.16
G1 F1200 X107.616 Y113.839 E64.45417
G0 F6000 X107.051 Y113.839
G1 F1200 X99.371 Y106.16 E64.81539
G0 F6000 X98.806 Y106.16
G1 F1200 X106.485 Y113.839 E65.17658
G0 F6000 X105.919 Y113.839
G1 F1200 X98.24 Y106.16 E65.53778
G0 F6000 X97.674 Y106.16
G1 F1200 X105.353 Y113.839 E65.89898
G0 F6000 X104.788 Y113.839
G1 F1200 X97.109 Y106.16 E66.26017
G0 F6000 X96.543 Y106.16
G1 F1200 X104.222 Y113.839 E66.62137
G0 F6000 X103.656 Y113.839
G1 F1200 X95.977 Y106.16 E66.98257
G0 F6000 X95.412 Y106.16
G1 F1200 X103.091 Y113.839 E67.34376
G0 F6000 X102.525 Y113.839
G1 F1200 X94.846 Y106.16 E67.70496
G0 F6000 X94.28 Y106.16
G1 F1200 X101.959 Y113.839 E68.06616
G0 F6000 X101.394 Y113.839
G1 F1200 X93.714 Y106.16 E68.42738
G0 F6000 X93.149 Y106.16
G1 F1200 X100.828 Y113.839 E68.78857
G0 F6000 X100.262 Y113.839
G1 F1200 X92.583 Y106.16 E69.14977
G0 F6000 X92.017 Y106.16
G1 F1200 X99.697 Y113.839 E69.51099
G0 F6000 X99.131 Y113.839
G1 F1200 X91.452 Y106.16 E69.87219
G0 F6000 X90.886 Y106.16
G1 F1200 X98.565 Y113.839 E70.23338
